assets/img/main/instagram.svg

<svg width="45" height="45" viewBox="0 0 45 45" fill="none" xmlns="http://www.w3.org/2000/svg">
<path d="M33.25 1H11.75C5.81294 1 1 5.81294 1 11.75V33.25C1 39.1871 5.81294 44 11.75 44H33.25C39.1871 44 44 39.1871 44 33.25V11.75C44 5.81294 39.1871 1 33.25 1Z" fill="#742209" stroke="#742209" stroke-width="2" stroke-linecap="round" stroke-linejoin="round"/>
<path d="M29.5 7H14.5C10.3579 7 7 10.3579 7 14.5V29.5C7 33.6421 10.3579 37 14.5 37H29.5C33.6421 37 37 33.6421 37 29.5V14.5C37 10.3579 33.6421 7 29.5 7Z" fill="#742209"/>
<path d="M28 21.055C28.1851 22.3034 27.9719 23.5783 27.3906 24.6985C26.8094 25.8187 25.8897 26.7271 24.7624 27.2945C23.6352 27.8619 22.3577 28.0594 21.1117 27.8589C19.8657 27.6584 18.7146 27.0701 17.8223 26.1777C16.9299 25.2854 16.3416 24.1343 16.1411 22.8883C15.9406 21.6423 16.1381 20.3648 16.7055 19.2376C17.2729 18.1103 18.1813 17.1906 19.3015 16.6094C20.4217 16.0281 21.6966 15.8149 22.945 16C24.2184 16.1888 25.3973 16.7822 26.3075 17.6925C27.2178 18.6027 27.8112 19.7816 28 21.055Z" fill="#742209"/>
<path d="M30.25 13.75H30.265M14.5 7H29.5C33.6421 7 37 10.3579 37 14.5V29.5C37 33.6421 33.6421 37 29.5 37H14.5C10.3579 37 7 33.6421 7 29.5V14.5C7 10.3579 10.3579 7 14.5 7ZM28 21.055C28.1851 22.3034 27.9719 23.5783 27.3906 24.6985C26.8094 25.8187 25.8897 26.7271 24.7624 27.2945C23.6352 27.8619 22.3577 28.0594 21.1117 27.8589C19.8657 27.6584 18.7146 27.0701 17.8223 26.1777C16.9299 25.2854 16.3416 24.1343 16.1411 22.8883C15.9406 21.6423 16.1381 20.3648 16.7055 19.2376C17.2729 18.1103 18.1813 17.1906 19.3015 16.6094C20.4217 16.0281 21.6966 15.8149 22.945 16C24.2184 16.1888 25.3973 16.7822 26.3075 17.6925C27.2178 18.6027 27.8112 19.7816 28 21.055Z" stroke="white" stroke-width="2" stroke-linecap="round" stroke-linejoin="round"/>
</svg>

<?xml version="1.0" encoding="UTF-8"?>
<svg id="Layer_1" xmlns="http://www.w3.org/2000/svg" version="1.1" viewBox="0 0 45 45">
  <!-- Generator: Adobe Illustrator 29.6.1, SVG Export Plug-In . SVG Version: 2.1.1 Build 9)  -->
  <defs>
    <style>
      .st0, .st1 {
        fill: none;
      }

      .st1 {
        stroke: #fff;
        stroke-linecap: round;
        stroke-linejoin: round;
        stroke-width: 3px;
      }
    </style>
  </defs>
  <path class="st0" d="M29.5,7h-15c-4.14,0-7.5,3.36-7.5,7.5v15c0,4.14,3.36,7.5,7.5,7.5h15c4.14,0,7.5-3.36,7.5-7.5v-15c0-4.14-3.36-7.5-7.5-7.5Z"/>
  <path class="st0" d="M28,21.06c.19,1.25-.03,2.52-.61,3.64-.58,1.12-1.5,2.03-2.63,2.6-1.13.57-2.4.76-3.65.56s-2.4-.79-3.29-1.68c-.89-.89-1.48-2.04-1.68-3.29-.2-1.25,0-2.52.56-3.65.57-1.13,1.48-2.05,2.6-2.63,1.12-.58,2.4-.79,3.64-.61,1.27.19,2.45.78,3.36,1.69.91.91,1.5,2.09,1.69,3.36Z"/>
  <path class="st1" d="M30.25,13.75h.01M14.5,7h15c4.14,0,7.5,3.36,7.5,7.5v15c0,4.14-3.36,7.5-7.5,7.5h-15c-4.14,0-7.5-3.36-7.5-7.5v-15c0-4.14,3.36-7.5,7.5-7.5ZM28,21.06c.19,1.25-.03,2.52-.61,3.64-.58,1.12-1.5,2.03-2.63,2.6-1.13.57-2.4.76-3.65.56s-2.4-.79-3.29-1.68c-.89-.89-1.48-2.04-1.68-3.29-.2-1.25,0-2.52.56-3.65.57-1.13,1.48-2.05,2.6-2.63,1.12-.58,2.4-.79,3.64-.61,1.27.19,2.45.78,3.36,1.69.91.91,1.5,2.09,1.69,3.36Z"/>
</svg>
